source/images/icons/user_icon.svg

<svg width="60" height="60" viewBox="0 0 60 60" fill="none" xmlns="http://www.w3.org/2000/svg">
<rect width="60" height="60" fill="white"/>
<path fill-rule="evenodd" clip-rule="evenodd" d="M32.6667 26C32.6667 27.4728 31.4728 28.6667 30 28.6667C28.5272 28.6667 27.3333 27.4728 27.3333 26C27.3333 24.5272 28.5272 23.3333 30 23.3333C31.4728 23.3333 32.6667 24.5272 32.6667 26ZM34 26C34 28.2091 32.2091 30 30 30C27.7909 30 26 28.2091 26 26C26 23.7909 27.7909 22 30 22C32.2091 22 34 23.7909 34 26ZM25.1967 34.3102C26.4361 33.2774 28.1613 32.6667 30 32.6667C31.8387 32.6667 33.5639 33.2774 34.8033 34.3102C36.0354 35.337 36.6667 36.6719 36.6667 38H38C38 36.2321 37.1573 34.5363 35.6569 33.286C34.1566 32.0357 32.1218 31.3333 30 31.3333C27.8782 31.3333 25.8434 32.0357 24.3431 33.286C22.8427 34.5363 22 36.2321 22 38L23.3333 38C23.3333 36.6719 23.9646 35.337 25.1967 34.3102Z" fill="#333333"/>
</svg>

<svg viewBox="0 0 60 60" fill="none" xmlns="http://www.w3.org/2000/svg"><path fill="#fff" d="M0 0h60v60h-60z"/><path fill-rule="evenodd" clip-rule="evenodd" d="M32.67 26a2.67 2.67 0 1 1-5.34 0 2.67 2.67 0 0 1 5.34 0Zm1.33 0a4 4 0 1 1-8 0 4 4 0 0 1 8 0Zm-8.8 8.31a7.55 7.55 0 0 1 4.8-1.64c1.84 0 3.56.6 4.8 1.64a4.83 4.83 0 0 1 1.87 3.69h1.33c0-1.77-.84-3.46-2.34-4.71a8.88 8.88 0 0 0-5.66-1.96c-2.12 0-4.16.7-5.66 1.96a6.16 6.16 0 0 0-2.34 4.71h1.33c0-1.33.63-2.66 1.87-3.69Z" fill="#333"/></svg>
